X:411
T: JOSEPHUS DER ROEMISCHE KAISER
N: E0337A
O: Europa, Mitteleuropa, Deutschland, Odenwald
R: historisches Lied, Tod Kaiser Joseph II (1790)
M: 6/8
L: 1/8
K: G
D | DGGGAB | B3A2
d | BcBAGA | G3z2
D | DGGGAB | B3A2
d | BcBAGA | G3z2
G | G2BB2d | d2Bc2
B | BAAABc | c2AB2
D | DGGGAB | B3A2
d | BcBAGA | G3z2

